X:1
T:g
T:Rondo Alla Turca
T:Turkish March
%%score { ( 1 3 ) | 2 }
L:1/8
M:2/4
K:C
V:1 treble nm="Piano" snm="Pno."
V:3 treble 
V:2 bass 
V:1
 B/A/^G/A/ | c z d/c/B/c/ | e z f/e/^d/e/ | b/a/^g/a/ b/a/g/a/ | c'2 ac' |{=ga} b[^fa] [eg][fa] | %6
{=ga} b[^fa] [eg][fa] |{=ga} b[^fa] [eg][^df] | e2 B/A/^G/A/ | c z d/c/B/c/ | e z f/e/^d/e/ | %11
 b/a/^g/a/ b/a/g/a/ | c'2 ac' |{=ga} b[^fa] [eg][fa] |{=ga} b[^fa] [eg][fa] | %15
{=ga} b[^fa] [eg][^df] | e2 [ce][=d=f] | [eg][eg] a/g/f/e/ | BG [ce][=d=f] | [eg][eg] a/g/f/e/ | %20
 [Bd]2 [Ac][Bd] | [ce][ce] f/e/d/c/ | ^GE [Ac][Bd] | [ce][ce] f/e/d/c/ | [^GB]2 B/A/G/A/ | %25
 c z d/c/B/c/ | e z f/e/^d/e/ | b/a/^g/a/ b/a/g/a/ | c'2 ab | c'b a^g | ae fd | c2 B3/2A/4B/4 | %32
 A2 [ce][=d=f] | [eg][eg] a/g/f/e/ | BG [ce][=d=f] | [eg][eg] a/g/f/e/ | [Bd]2 [Ac][Bd] | %37
 [ce][ce] f/e/d/c/ | ^GE [Ac][Bd] | [ce][ce] f/e/d/c/ | [^GB]2 B/A/G/A/ | c z d/c/B/c/ | %42
 e z f/e/^d/e/ | b/a/^g/a/ b/a/g/a/ | c'2 ab | c'b a^g | ae fd | c2 B3/2A/4B/4 |[K:A] A2 [Aa][Bb] | %49
 [cc']2 [Aa][Bb] | [cc'][Bb] [Aa][Gg] | [Ff][Gg] [Aa][Bb] | [Gg][Ee] [Aa][Bb] | [cc']2 [Aa][Bb] | %54
 [cc'][Bb] [Aa][Gg] | [Ff][Bb] [Gg][Ee] | [Aa]2 [Aa][Bb] | [cc']2 [Aa][Bb] | [cc'][Bb] [Aa][Gg] | %59
 [Ff][Gg] [Aa][Bb] | [Gg][Ee] [Aa][Bb] | [cc']2 [Aa][Bb] | [cc'][Bb] [Aa][Gg] | [Ff][Bb] [Gg][Ee] | %64
 [Aa]2 c'/d'/c'/b/ | a/b/a/g/ f/a/g/f/ | ^e/f/g/e/ c/^d/e/c/ | f/^e/f/g/ a/g/a/b/ | %68
 c'/^b/c'/b/ c'/d'/c'/=b/ | a/b/a/g/ f/a/g/f/ | e/f/g/e/ c/^d/e/c/ | ^d/e/f/d/ ^B/c/d/B/ | %72
 c2 c'/d'/c'/b/ | a/b/a/g/ f/a/g/f/ | ^e/f/g/e/ c/^d/e/c/ | f/^e/f/g/ a/g/a/b/ | %76
 c'/^b/c'/b/ c'/d'/c'/=b/ | a/b/a/g/ f/a/g/f/ | e/f/g/e/ c/^d/e/c/ | ^d/e/f/d/ ^B/c/d/B/ | %80
 c2 e/=d/c/=B/ | A/B/c/d/ e/f/g/a/ | a/g/f/e/ e/d/c/B/ | A/B/c/d/ e/f/g/a/ | ^ab e/d/c/B/ | %85
 A/B/c/d/ e/f/g/a/ | a/g/f/e/ e/d/c/B/ | c/e/A/c/ B/d/G/B/ | A2 c'/d'/c'/b/ | a/b/a/g/ f/a/g/f/ | %90
 ^e/f/g/e/ c/^d/e/c/ | f/^e/f/g/ a/g/a/b/ | c'/^b/c'/b/ c'/b/c'/^a/ | d'/c'/d'/c'/ d'/c'/d'/c'/ | %94
 d'/c'/b/a/ g/a/b/g/ | a/b/c'/f/ ^e/f/g/e/ | f2 e/=d/c/=B/ | A/B/c/d/ e/f/g/a/ | %98
 a/g/f/e/ e/d/c/B/ | A/B/c/d/ e/f/g/a/ | ^ab e/d/c/B/ | A/B/c/d/ e/f/g/a/ | a/g/f/e/ e/d/c/B/ | %103
 c/e/A/c/ B/d/G/B/ | A2 c'/d'/c'/b/ | a/b/a/g/ f/a/g/f/ | ^e/f/g/e/ c/^d/e/c/ | %107
 f/^e/f/g/ a/g/a/b/ | c'/^b/c'/b/ c'/b/c'/^a/ | d'/c'/d'/c'/ d'/c'/d'/c'/ | d'/c'/b/a/ g/a/b/g/ | %111
 a/b/c'/f/ ^e/f/g/e/ | f2 [Aa][Bb] | [cc']2 [Aa][Bb] | [cc'][Bb] [Aa][Gg] | [Ff][Gg] [Aa][Bb] | %116
 [Gg][Ee] [Aa][Bb] | [cc']2 [Aa][Bb] | [cc'][Bb] [Aa][Gg] | [Ff][Bb] [Gg][Ee] | [Aa]2 [Aa][Bb] | %121
 [cc']2 [Aa][Bb] | [cc'][Bb] [Aa][Gg] | [Ff][Gg] [Aa][Bb] | [Gg][Ee] [Aa][Bb] | [cc']2 [Aa][Bb] | %126
 [cc'][Bb] [Aa][Gg] | [Ff][Bb] [Gg][Ee] |[K:C] [Aa]2 B/A/^G/A/ | c z d/c/B/c/ | e z f/e/^d/e/ | %131
 b/a/^g/a/ b/a/g/a/ | c'2 ac' |{=ga} b[^fa] [eg][fa] |{=ga} b[^fa] [eg][fa] | %135
{=ga} b[^fa] [eg][^df] | e2 B/A/^G/A/ | c z d/c/B/c/ | e z f/e/^d/e/ | b/a/^g/a/ b/a/g/a/ | %140
 c'2 ac' |{=ga} b[^fa] [eg][fa] |{=ga} b[^fa] [eg][fa] |{=ga} b[^fa] [eg][^df] | e2 [ce][=d=f] | %145
 [eg][eg] a/g/f/e/ | BG [ce][=d=f] | [eg][eg] a/g/f/e/ | [Bd]2 [Ac][Bd] | [ce][ce] f/e/d/c/ | %150
 ^GE [Ac][Bd] | [ce][ce] f/e/d/c/ | [^GB]2 B/A/G/A/ | c z d/c/B/c/ | e z f/e/^d/e/ | %155
 b/a/^g/a/ b/a/g/a/ | c'2 ab | c'b a^g | ae fd | c2 B3/2A/4B/4 | A2 [ce][=d=f] | %161
 [eg][eg] a/g/f/e/ | BG [ce][=d=f] | [eg][eg] a/g/f/e/ | [Bd]2 [Ac][Bd] | [ce][ce] f/e/d/c/ | %166
 ^GE [Ac][Bd] | [ce][ce] f/e/d/c/ | [^GB]2 B/A/G/A/ | c z d/c/B/c/ | e z f/e/^d/e/ | %171
 b/a/^g/a/ b/a/g/a/ | c'2 ab | c'b a^g | ae fd | c2 B3/2A/4B/4 ||[K:A] A2 A/a/B/b/ | %177
 c/c'/ z A/a/B/b/ | c/c'/B/b/ A/a/G/g/ | F/f/G/g/ A/a/B/b/ | G/g/E/e/ A/a/B/b/ | c/c'/ z A/a/B/b/ | %182
 c/c'/B/b/ A/a/G/g/ | F/f/B/b/ G/g/E/e/ | [Aa]2 A/a/B/b/ | c/c'/ z A/a/B/b/ | c/c'/B/b/ A/a/G/g/ | %187
 F/f/G/g/ A/a/B/b/ | G/g/E/e/ A/a/B/b/ | c/c'/ z A/a/B/b/ | c/c'/B/b/ A/a/G/g/ | %191
 F/f/B/b/ G/g/E/e/ | [Aa]2 c2 | !arpeggio!c'4 | !arpeggio!c'4 | d'/c'/b/c'/ d'/c'/b/c'/ | [fad']4 | %197
{/d'} [eac']{/d'}[eac']{/d'} [eac']{/d'}[eac'] | b3 e' | !arpeggio!c'4 | !arpeggio!c'4 | %201
 d'/c'/b/c'/ d'/c'/b/c'/ | [fad']4 |{/d'} [eac']4 |{/c'} [egb]{/c'}[egb]{/c'} [egb]{/c'}[egb] | %205
 a2{/ea} c'>c' |{/ea} c'4 |{/ea} c'4 | d'/c'/b/c'/ d'/c'/b/c'/ | d'4 | %210
{/d'} c'{/d'}c'{/d'} c'{/d'}c' | b3 e' | !arpeggio!c'4 | !arpeggio!c'4 | d'/c'/b/c'/ d'/c'/b/c'/ | %215
 [fad']4 |{/d'} [eac']4 |{/c'} [egb]{/c'}[egb]{/c'} [egb]{/c'}[egb] | [Acea]3 [cc'] | [Aa]3 [ee'] | %220
 [Aa]3 [cc'] | [Aa][cc'] [Aa][ee'] | [Aa]2 [Acea]2 |] %223
V:2
 z2 | A,[CE] [CE][CE] | A,[CE] [CE][CE] | A,[CE] A,[CE] | A,[CE] [CE][CE] | E,[B,E] [B,E][B,E] | %6
 E,[B,E] [B,E][B,E] | E,[B,E] B,,B, | E,2 z2 | A,[CE] [CE][CE] | A,[CE] [CE][CE] | A,[CE] A,[CE] | %12
 A,[CE] [CE][CE] | E,[B,E] [B,E][B,E] | E,[B,E] [B,E][B,E] | E,[B,E] B,,B, | E,2 z2 | C,C E,E | %18
 G,2 z2 | C,C E,E | G,2 z2 | A,,A, C,C | E,2 z2 | A,,A, C,C | E,2 z2 | A,[CE] [CE][CE] | %26
 A,[CE] [CE][CE] | A,[CE] A,[CE] | F,[A,^D] [A,D][A,D] | E,[A,E] =D,[F,B,] | C,[E,A,] D,[F,B,] | %31
 [E,A,][E,A,] [E,^G,][E,G,] | [A,,A,]2 z2 | C,C E,E | G,2 z2 | C,C E,E | G,2 z2 | A,,A, C,C | %38
 E,2 z2 | A,,A, C,C | E,2 z2 | A,[CE] [CE][CE] | A,[CE] [CE][CE] | A,[CE] A,[CE] | %44
 F,[A,^D] [A,D][A,D] | E,[A,E] =D,[F,B,] | C,[E,A,] D,[F,B,] | [E,A,][E,A,] [E,^G,][E,G,] | %48
[K:A] [A,,A,]2 z2 |{A,,C,E,} A,A, A,A, |{A,,C,E,} A,A, A,A, |{D,,F,,A,,} D,D,{^D,,F,,A,,} ^D,D, | %52
{E,,G,,B,,} E,E, E,E, |{A,,C,E,} A,A, A,A, |{A,,C,E,} A,A, A,A, |{D,,F,,A,,} D,D,{E,,G,,B,,} E,E, | %56
 A,,2 z2 |{A,,C,E,} A,A, A,A, |{A,,C,E,} A,A, A,A, |{D,,F,,A,,} D,D,{^D,,F,,A,,} ^D,D, | %60
{E,,G,,B,,} E,E, E,E, |{A,,C,E,} A,A, A,A, |{A,,C,E,} A,A, A,A, |{D,,F,,A,,} D,D,{E,,G,,B,,} E,E, | %64
 A,,2 z2 | F,[A,C] [A,C][A,C] | G,[B,C] [B,C][B,C] | F,[A,C] [A,C][A,C] | ^E,[G,C] [G,C][G,C] | %69
 F,[A,C] [A,C][A,C] | G,[CE] [CE][CE] | G,[^DF] [DF][DF] | [CE]2 z2 | F,[A,C] [A,C][A,C] | %74
 G,[B,C] [B,C][B,C] | F,[A,C] [A,C][A,C] | ^E,[G,C] [G,C][G,C] | F,[A,C] [A,C][A,C] | %78
 G,[CE] [CE][CE] | G,[^DF] [DF][DF] | [CE]2 z2 | A,[CE] [CE][CE] | B,[DE] G,[DE] | %83
 A,[CE] [CE][CE] | E,[G,D] [G,D][G,D] | A,[CE] [CE][CE] | B,[DE] G,[DE] | A,F, D,E, | A,,A, z2 | %89
 F,[A,C] [A,C][A,C] | G,[B,C] [B,C][B,C] | F,[A,C] [A,C][A,C] | C,[G,C] [=G,C][F,C] | %93
 B,,[F,B,] [F,B,][F,B,] | B,,[^G,B,] [G,B,][G,B,] | C,[F,A,] C,[G,B,] | [F,A,]2 z2 | %97
 A,[CE] [CE][CE] | B,[DE] G,[DE] | A,[CE] [CE][CE] | E,[G,D] [G,D][G,D] | A,[CE] [CE][CE] | %102
 B,[DE] G,[DE] | A,F, D,E, | A,,A, z2 | F,[A,C] [A,C][A,C] | G,[B,C] [B,C][B,C] | %107
 F,[A,C] [A,C][A,C] | C,[G,C] [F,C][=F,C] | B,,[F,B,] [F,B,][F,B,] | B,,[^G,B,] [G,B,][G,B,] | %111
 C,[F,A,] C,[G,B,] | [F,A,]2 z2 |{A,,C,E,} A,A, A,A, |{A,,C,E,} A,A, A,A, | %115
{D,,F,,A,,} D,D,{^D,,F,,A,,} ^D,D, |{E,,G,,B,,} E,E, E,E, |{A,,C,E,} A,A, A,A, | %118
{A,,C,E,} A,A, A,A, |{D,,F,,A,,} D,D,{E,,G,,B,,} E,E, | A,,2 z2 |{A,,C,E,} A,A, A,A, | %122
{A,,C,E,} A,A, A,A, |{D,,F,,A,,} D,D,{^D,,F,,A,,} ^D,D, |{E,,G,,B,,} E,E, E,E, | %125
{A,,C,E,} A,A, A,A, |{A,,C,E,} A,A, A,A, |{D,,F,,A,,} D,D,{E,,G,,B,,} E,E, |[K:C] A,,2 z2 | %129
 A,[CE] [CE][CE] | A,[CE] [CE][CE] | A,[CE] A,[CE] | A,[CE] [CE][CE] | E,[B,E] [B,E][B,E] | %134
 E,[B,E] [B,E][B,E] | E,[B,E] B,,B, | E,2 z2 | A,[CE] [CE][CE] | A,[CE] [CE][CE] | A,[CE] A,[CE] | %140
 A,[CE] [CE][CE] | E,[B,E] [B,E][B,E] | E,[B,E] [B,E][B,E] | E,[B,E] B,,B, | E,2 z2 | C,C E,E | %146
 G,2 z2 | C,C E,E | G,2 z2 | A,,A, C,C | E,2 z2 | A,,A, C,C | E,2 z2 | A,[CE] [CE][CE] | %154
 A,[CE] [CE][CE] | A,[CE] A,[CE] | F,[A,^D] [A,D][A,D] | E,[A,E] =D,[F,B,] | C,[E,A,] D,[F,B,] | %159
 [E,A,][E,A,] [E,^G,][E,G,] | [A,,A,]2 z2 | C,C E,E | G,2 z2 | C,C E,E | G,2 z2 | A,,A, C,C | %166
 E,2 z2 | A,,A, C,C | E,2 z2 | A,[CE] [CE][CE] | A,[CE] [CE][CE] | A,[CE] A,[CE] | %172
 F,[A,^D] [A,D][A,D] | E,[A,E] =D,[F,B,] | C,[E,A,] D,[F,B,] | [E,A,][E,A,] [E,^G,][E,G,] || %176
[K:A] [A,,A,]2 z2 |{A,,C,E,} A,A, A,A, |{A,,C,E,} A,A, A,A, |{D,,F,,A,,} D,D,{^D,,F,,A,,} ^D,D, | %180
{E,,G,,B,,} E,E, E,E, |{A,,C,E,} A,A, A,A, |{A,,C,E,} A,A, A,A, |{D,,F,,A,,} D,D,{E,,G,,B,,} E,E, | %184
 A,,2 z2 |{A,,C,E,} A,A, A,A, |{A,,C,E,} A,A, A,A, |{D,,F,,A,,} D,D,{^D,,F,,A,,} ^D,D, | %188
{E,,G,,B,,} E,E, E,E, |{A,,C,E,} A,A, A,A, |{A,,C,E,} A,A, A,A, |{D,,F,,A,,} D,D,{E,,G,,B,,} E,E, | %192
{A,,C,E,} A,A, A,A, |{A,,C,E,} A,A, A,A, |{A,,C,E,} A,A, A,A, |{A,,C,E,} A,A, A,A, | %196
{D,,F,,A,,} D,D, D,D, |{A,,C,E,} A,A, A,A, |{E,,G,,B,,} E,E, E,E, |{A,,C,E,} A,A, A,A, | %200
{A,,C,E,} A,A, A,A, |{A,,C,E,} A,A, A,A, |{D,,F,,A,,} D,D, D,D, |{A,,C,E,} A,A, A,A, | %204
{E,,G,,B,,} E,E, E,E, | A,/E/C/E/ A,/E/C/E/ | A,/E/C/E/ A,/E/C/E/ | A,/E/C/E/ A,/E/C/E/ | %208
 A,/E/C/E/ A,/E/C/E/ | A,/F/D/F/ A,/F/D/F/ | A,/E/C/E/ A,/E/C/E/ | E,/E/G,/E/ E,/E/G,/E/ | %212
{A,,C,E,} A,A, A,A, |{A,,C,E,} A,A, A,A, |{A,,C,E,} A,A, A,A, |{D,,F,,A,,} D,D, D,D, | %216
{A,,C,E,} A,A, A,A, |{E,,G,,B,,} E,E, E,E, |{A,,C,E,} A,A, A,A, |{A,,C,E,} A,A, A,A, | %220
{A,,C,E,} A,A, A,A, |{A,,C,E,} A,A,{A,,C,E,} A,A, | A,,2 [A,,C,E,A,]2 |] %223
V:3
 x2 | x4 | x4 | x4 | x4 | x4 | x4 | x4 | x4 | x4 | x4 | x4 | x4 | x4 | x4 | x4 | x4 | x4 | d2 x2 | %19
 x4 | x4 | x4 | B2 x2 | x4 | x4 | x4 | x4 | x4 | x4 | x4 | x4 | x4 | x4 | x4 | d2 x2 | x4 | x4 | %37
 x4 | B2 x2 | x4 | x4 | x4 | x4 | x4 | x4 | x4 | x4 | x4 |[K:A] x4 | x4 | x4 | x4 | x4 | x4 | x4 | %55
 x4 | x4 | x4 | x4 | x4 | x4 | x4 | x4 | x4 | x4 | x4 | x4 | x4 | x4 | x4 | x4 | x4 | x4 | x4 | %74
 x4 | x4 | x4 | x4 | x4 | x4 | x4 | x4 | x4 | x4 | x4 | x4 | x4 | x4 | x4 | x4 | x4 | x4 | x4 | %93
 x4 | x4 | x4 | x4 | x4 | x4 | x4 | x4 | x4 | x4 | x4 | x4 | x4 | x4 | x4 | x4 | x4 | x4 | x4 | %112
 x4 | x4 | x4 | x4 | x4 | x4 | x4 | x4 | x4 | x4 | x4 | x4 | x4 | x4 | x4 | x4 |[K:C] x4 | x4 | %130
 x4 | x4 | x4 | x4 | x4 | x4 | x4 | x4 | x4 | x4 | x4 | x4 | x4 | x4 | x4 | x4 | d2 x2 | x4 | x4 | %149
 x4 | B2 x2 | x4 | x4 | x4 | x4 | x4 | x4 | x4 | x4 | x4 | x4 | x4 | d2 x2 | x4 | x4 | x4 | B2 x2 | %167
 x4 | x4 | x4 | x4 | x4 | x4 | x4 | x4 | x4 ||[K:A] x4 | x4 | x4 | x4 | x4 | x4 | x4 | x4 | x4 | %185
 x4 | x4 | x4 | x4 | x4 | x4 | x4 | x2 c'>c' | !arpeggio![cea]2 x2 | !arpeggio![cea]2 x2 | x4 | %196
 x4 | x4 | [eg]4 | !arpeggio![cea]2 x2 | !arpeggio![cea]2 x2 | x4 | x4 | x4 | x4 | x4 | x4 | x4 | %208
 x4 | x4 | x4 | x4 | !arpeggio![cea]2 x2 | !arpeggio![cea]2 x2 | x4 | x4 | x4 | x4 | x4 | x4 | x4 | %221
 x4 | x4 |] %223

